app/assets/images/energiasimples/logo-es.svg

<svg width="306" height="78" viewBox="0 0 306 78" fill="none" xmlns="http://www.w3.org/2000/svg">
<rect x="1" y="1" width="38" height="38" fill="#122675" stroke="#122675" stroke-width="2"/>
<path d="M13.45 29.0001H18.7V23.8001H21.7C26.425 23.8001 29.375 21.3001 29.375 17.4501C29.375 13.6001 26.45 11.1001 21.75 11.1001H13.45V29.0001ZM18.7 20.0001V14.9001H21.15C22.925 14.9001 24.1 15.9001 24.1 17.4501C24.1 19.0001 22.925 20.0001 21.15 20.0001H18.7Z" fill="white"/>
<rect x="39" y="1" width="38" height="38" stroke="#122675" stroke-width="2"/>
<path d="M51.425 29.0001H56.7V23.1001H57.975L62.425 29.0001H68.3001L63.025 22.7001L63.225 22.6501C65.825 22.1751 67.725 20.1251 67.725 17.2001C67.725 13.5501 64.8251 11.1001 60.45 11.1001H51.425V29.0001ZM56.7 19.6751V14.9001H59.525C61.2 14.9001 62.45 15.8001 62.45 17.2751C62.45 18.7751 61.2 19.6751 59.525 19.6751H56.7Z" fill="#122675"/>
<rect x="77" y="1" width="38" height="38" stroke="#122675" stroke-width="2"/>
<path d="M89.425 29.0001H103.45V24.8501H94.525V21.6751H102.725V18.2501H94.525V15.2501H103.2V11.1001H89.425V29.0001Z" fill="#122675"/>
<rect x="115" y="1" width="38" height="38" stroke="#122675" stroke-width="2"/>
<path d="M133.95 29.375C138.95 29.375 142.225 27.075 142.225 23.525C142.225 19.2 138.1 18.55 135.05 18.1C132.975 17.8 131.2 17.575 131.2 16.225C131.2 15.225 132.2 14.525 133.875 14.525C135.675 14.525 136.85 15.425 136.85 17H141.625C141.625 13.3 138.45 10.75 133.7 10.75C128.975 10.75 125.925 13.05 125.925 16.6C125.925 21.2 130.575 21.575 133.65 22C135.475 22.25 136.95 22.55 136.95 23.85C136.95 24.95 135.85 25.575 134.15 25.575C132 25.575 130.775 24.6 130.75 23.1H125.8C125.8 26.8 129.05 29.375 133.95 29.375Z" fill="#122675"/>
<rect x="153" y="1" width="38" height="38" stroke="#122675" stroke-width="2"/>
<path d="M165.425 29.0001H179.45V24.8501H170.525V21.6751H178.725V18.2501H170.525V15.2501H179.2V11.1001H165.425V29.0001Z" fill="#122675"/>
<rect x="191" y="1" width="38" height="38" stroke="#122675" stroke-width="2"/>
<path d="M202.425 29.0001H207.7V23.1001H208.975L213.425 29.0001H219.3L214.025 22.7001L214.225 22.6501C216.825 22.1751 218.725 20.1251 218.725 17.2001C218.725 13.5501 215.825 11.1001 211.45 11.1001H202.425V29.0001ZM207.7 19.6751V14.9001H210.525C212.2 14.9001 213.45 15.8001 213.45 17.2751C213.45 18.7751 212.2 19.6751 210.525 19.6751H207.7Z" fill="#122675"/>
<rect x="229" y="1" width="38" height="38" stroke="#122675" stroke-width="2"/>
<path d="M244.525 29.0001H252.75L258.05 11.1001H252.6L248.775 25.1251H248.525L244.65 11.1001H239.25L244.525 29.0001Z" fill="#122675"/>
<rect x="267" y="1" width="38" height="38" stroke="#122675" stroke-width="2"/>
<path d="M279.425 29.0001H293.45V24.8501H284.525V21.6751H292.725V18.2501H284.525V15.2501H293.2V11.1001H279.425V29.0001Z" fill="#122675"/>
<rect x="39" y="39" width="38" height="38" stroke="#122675" stroke-width="2"/>
<path fill-rule="evenodd" clip-rule="evenodd" d="M76 38H230V78H76V38ZM193.862 66.959H194.849L193.885 72.4138H192.898L193.862 66.959ZM194.732 64.3727C195.108 64.3727 195.414 64.6783 195.414 65.031C195.414 65.4307 195.061 65.7599 194.661 65.7599C194.285 65.7599 194.003 65.4542 194.003 65.1015C193.98 64.7018 194.309 64.3727 194.732 64.3727ZM166.212 71.6614C165.201 71.6614 164.448 71.0971 164.448 69.992H168.539C168.61 69.7099 168.657 69.3572 168.657 69.0515C168.657 67.7113 167.716 66.8414 166.423 66.8414C165.671 66.8414 164.848 67.1235 164.237 67.8524C163.743 68.4402 163.461 69.2631 163.461 70.0625C163.461 71.7319 164.66 72.5548 166.141 72.5548C166.658 72.5548 167.293 72.4373 167.763 72.2257L167.952 71.1911C167.528 71.4262 166.87 71.6614 166.212 71.6614ZM167.716 69.1926H164.566C164.848 68.2756 165.53 67.7348 166.376 67.7348C167.27 67.7348 167.716 68.2991 167.716 69.075V69.1926ZM170.467 66.9589H171.478L171.361 67.6172H171.384C171.949 67.1705 172.607 66.8178 173.359 66.8178C174.323 66.8178 175.005 67.4527 175.005 68.4872C175.005 68.6753 174.982 68.8869 174.911 69.2631L174.347 72.4137H173.336L173.877 69.3336C173.924 69.028 173.947 68.8399 173.947 68.6753C173.947 68.111 173.688 67.7583 173.077 67.7583C172.442 67.7583 171.76 68.158 171.173 68.6047L170.514 72.4137H169.48L170.467 66.9589ZM178.908 71.6614C177.897 71.6614 177.145 71.0971 177.145 69.992H181.236C181.306 69.7099 181.353 69.3572 181.353 69.0515C181.353 67.7113 180.413 66.8414 179.12 66.8414C178.367 66.8414 177.545 67.1235 176.933 67.8524C176.439 68.4402 176.157 69.2631 176.157 70.0625C176.157 71.7319 177.356 72.5548 178.838 72.5548C179.355 72.5548 179.99 72.4373 180.46 72.2257L180.648 71.1911C180.225 71.4262 179.567 71.6614 178.908 71.6614ZM180.413 69.1926H177.262C177.545 68.2756 178.226 67.7348 179.073 67.7348C179.966 67.7348 180.413 68.2991 180.413 69.075V69.1926ZM183.164 66.9591H184.175L184.01 67.8996H184.034C184.504 67.3118 185.351 66.9121 186.056 66.9121C186.174 66.9121 186.291 66.9121 186.409 66.9356L186.244 67.8996C186.213 67.8996 186.169 67.8951 186.119 67.89C186.055 67.8835 185.981 67.8761 185.915 67.8761C185.139 67.8761 184.387 68.2993 183.846 69.0046L183.235 72.4139H182.247L183.164 66.9591ZM189.818 66.8414C188.924 66.8414 188.101 67.147 187.537 67.7348C186.926 68.3462 186.596 69.2396 186.62 70.1096C186.62 71.4968 187.56 72.4373 188.854 72.4373C189.465 72.4373 189.865 72.2257 190.217 71.9905L190.123 72.5078C189.912 73.6364 189.112 74.1066 188.242 74.1066C187.584 74.1066 186.902 73.848 186.432 73.4953L186.244 74.5299C186.879 74.859 187.537 75.0001 188.195 75.0001C189.677 75.0001 190.805 74.2947 191.134 72.4373L192.028 67.3822C191.322 67.053 190.546 66.8414 189.818 66.8414ZM190.358 71.0501C189.959 71.3322 189.512 71.5438 189.018 71.5438C188.172 71.5438 187.584 70.9325 187.584 69.992C187.584 69.4042 187.796 68.7929 188.195 68.3697C188.524 67.9935 189.018 67.7348 189.677 67.7348C190.123 67.7348 190.594 67.8524 190.899 67.97L190.358 71.0501ZM200.351 72.4373H199.364L199.458 71.967H199.434C199.034 72.2962 198.541 72.5783 197.882 72.5783C196.683 72.5783 195.766 71.6614 195.766 70.2271C195.766 69.4042 196.072 68.4637 196.73 67.7819C197.365 67.1235 198.212 66.8414 199.011 66.8414C199.81 66.8414 200.563 67.1235 201.245 67.4527L200.351 72.4373ZM200.14 68.017C199.81 67.8524 199.364 67.7348 198.917 67.7348C198.235 67.7348 197.741 68.017 197.389 68.4167C196.965 68.9104 196.754 69.5453 196.754 70.1331C196.754 71.1206 197.342 71.6849 198.07 71.6849C198.611 71.6849 199.176 71.3792 199.646 70.8855L200.14 68.017ZM108.019 58.3299C106.632 58.3299 104.304 57.7656 102.447 56.5194V60.3989C104.092 61.2454 106.232 61.6921 107.972 61.6921C111.734 61.6921 114.32 59.6465 114.32 56.2373C114.32 53.1337 112.204 51.9111 109.571 51.0411C109.186 50.9158 108.817 50.8095 108.472 50.7098L108.471 50.7098L108.471 50.7097L108.471 50.7097L108.471 50.7096L108.471 50.7096C106.936 50.2674 105.856 49.9562 105.856 48.6899C105.856 47.5378 106.796 47.044 108.09 47.044C109.453 47.044 111.593 47.5848 113.45 48.7369V44.9515C111.922 44.1285 109.829 43.7053 108.113 43.7053C104.469 43.7053 102 45.7274 102 48.972C102 52.0286 104.163 53.2042 106.585 53.9801C106.974 54.1072 107.346 54.2165 107.694 54.3188C109.342 54.8032 110.464 55.133 110.464 56.4724C110.464 57.7656 109.406 58.3299 108.019 58.3299ZM118.341 43.7053C119.493 43.7053 120.457 44.6458 120.457 45.7979C120.457 46.95 119.493 47.8905 118.341 47.8905C117.189 47.8905 116.225 46.95 116.225 45.7979C116.201 44.6458 117.165 43.7053 118.341 43.7053ZM138.114 52.9456C138.396 53.2748 138.537 53.6745 138.537 54.568V61.4335H142.205V53.9802C142.205 52.2873 141.876 51.2528 141.124 50.4768C140.442 49.748 139.384 49.3012 138.067 49.3012C136.586 49.3012 135.175 49.8655 133.906 50.9941C133.2 49.795 131.719 49.3012 130.449 49.3012C128.992 49.3012 127.792 49.8655 126.875 50.6414L126.828 50.6179V49.5599H123.208V61.3865H126.922V53.3924C127.51 52.8986 128.38 52.4284 129.227 52.4284C129.697 52.4284 130.144 52.5929 130.473 52.9456C130.778 53.2983 130.896 53.7685 130.896 54.568V61.41H134.564V53.9566C134.564 53.7685 134.564 53.5805 134.54 53.4159C135.152 52.8516 136.022 52.4284 136.868 52.4284C137.338 52.4284 137.785 52.5929 138.114 52.9456ZM148.859 66.3946H145.191V49.2307H148.789V49.8185L148.836 49.842C149.612 49.3013 150.599 48.9486 151.775 48.9486C154.808 48.9486 157.394 51.3703 157.394 55.0382C157.394 58.8472 154.667 61.3395 151.187 61.3395C150.223 61.3395 149.447 61.1514 148.906 60.8927L148.859 60.9162V66.3946ZM150.74 58.3769C152.645 58.3769 153.703 57.0132 153.703 55.2498C153.703 53.4629 152.645 52.0287 150.834 52.0287C150.082 52.0287 149.377 52.2873 148.859 52.687V57.9537C149.33 58.1653 150.011 58.3769 150.74 58.3769ZM163.437 43H159.769V61.41H163.437V43ZM169.503 56.1902C169.903 57.8361 171.267 58.5885 172.96 58.5885C174.276 58.5885 175.734 58.1417 176.98 57.2953V60.3519C175.828 61.0807 174.041 61.4334 172.466 61.4334C168.563 61.4334 165.741 58.9882 165.741 55.2732C165.741 51.4878 168.68 49.019 171.972 49.019C174.888 49.019 177.638 50.947 177.638 54.9206C177.638 55.3203 177.615 55.861 177.568 56.1667H169.503V56.1902ZM174.253 53.886C174.041 52.6164 173.101 51.8405 171.925 51.8405C170.796 51.8405 169.809 52.5458 169.48 53.886H174.253ZM184.363 58.5885C183.234 58.5885 181.33 58.1887 179.684 57.2247V60.4224C181.118 61.1278 182.952 61.4099 184.363 61.4099C187.419 61.4099 189.677 59.9992 189.7 57.3893C189.7 55.3203 188.313 54.4738 186.056 53.9095C185.603 53.8009 185.183 53.7248 184.808 53.6569C183.724 53.4605 183.023 53.3335 183.023 52.6869C183.023 52.1226 183.61 51.8405 184.574 51.8405C185.633 51.8405 187.466 52.2167 189.042 53.1101V49.9595C187.678 49.3012 185.915 49.019 184.504 49.019C181.541 49.019 179.331 50.4297 179.308 52.9455C179.308 54.897 180.648 55.8375 182.882 56.4018C183.358 56.521 183.802 56.6017 184.195 56.6734C185.277 56.8703 185.985 56.9992 185.985 57.6715C185.985 58.3298 185.374 58.5885 184.363 58.5885Z" fill="#122675"/>
<path d="M63.375 50C61.206 50 59.3798 51.3484 58.5 52.1333C57.6202 51.3484 55.794 50 53.625 50C50.523 50 48 52.5145 48 55.6061C48 57.542 49.7738 59.3039 49.845 59.3741L58.5 68L67.1505 59.3786C67.2263 59.3039 69 57.542 69 55.6061C69 52.5145 66.477 50 63.375 50Z" fill="#122675"/>
</svg>

<svg width="306" height="78" fill="none" xmlns="http://www.w3.org/2000/svg"><path fill="#122675" stroke="#122675" stroke-width="2" d="M1 1h38v38H1z"/><path d="M13.45 29h5.25v-5.2h3c4.725 0 7.675-2.5 7.675-6.35 0-3.85-2.925-6.35-7.625-6.35h-8.3V29zm5.25-9v-5.1h2.45c1.775 0 2.95 1 2.95 2.55C24.1 19 22.925 20 21.15 20H18.7z" fill="#fff"/><path stroke="#122675" stroke-width="2" d="M39 1h38v38H39z"/><path d="M51.425 29H56.7v-5.9h1.275l4.45 5.9H68.3l-5.275-6.3.2-.05c2.6-.475 4.5-2.525 4.5-5.45 0-3.65-2.9-6.1-7.275-6.1h-9.025V29zm5.275-9.325V14.9h2.825c1.675 0 2.925.9 2.925 2.375 0 1.5-1.25 2.4-2.925 2.4H56.7z" fill="#122675"/><path stroke="#122675" stroke-width="2" d="M77 1h38v38H77z"/><path d="M89.425 29h14.025v-4.15h-8.925v-3.175h8.2V18.25h-8.2v-3h8.675V11.1H89.425V29z" fill="#122675"/><path stroke="#122675" stroke-width="2" d="M115 1h38v38h-38z"/><path d="M133.95 29.375c5 0 8.275-2.3 8.275-5.85 0-4.325-4.125-4.975-7.175-5.425-2.075-.3-3.85-.525-3.85-1.875 0-1 1-1.7 2.675-1.7 1.8 0 2.975.9 2.975 2.475h4.775c0-3.7-3.175-6.25-7.925-6.25-4.725 0-7.775 2.3-7.775 5.85 0 4.6 4.65 4.975 7.725 5.4 1.825.25 3.3.55 3.3 1.85 0 1.1-1.1 1.725-2.8 1.725-2.15 0-3.375-.975-3.4-2.475h-4.95c0 3.7 3.25 6.275 8.15 6.275z" fill="#122675"/><path stroke="#122675" stroke-width="2" d="M153 1h38v38h-38z"/><path d="M165.425 29h14.025v-4.15h-8.925v-3.175h8.2V18.25h-8.2v-3h8.675V11.1h-13.775V29z" fill="#122675"/><path stroke="#122675" stroke-width="2" d="M191 1h38v38h-38z"/><path d="M202.425 29h5.275v-5.9h1.275l4.45 5.9h5.875l-5.275-6.3.2-.05c2.6-.475 4.5-2.525 4.5-5.45 0-3.65-2.9-6.1-7.275-6.1h-9.025V29zm5.275-9.325V14.9h2.825c1.675 0 2.925.9 2.925 2.375 0 1.5-1.25 2.4-2.925 2.4H207.7z" fill="#122675"/><path stroke="#122675" stroke-width="2" d="M229 1h38v38h-38z"/><path d="M244.525 29h8.225l5.3-17.9h-5.45l-3.825 14.025h-.25L244.65 11.1h-5.4l5.275 17.9z" fill="#122675"/><path stroke="#122675" stroke-width="2" d="M267 1h38v38h-38z"/><path d="M279.425 29h14.025v-4.15h-8.925v-3.175h8.2V18.25h-8.2v-3h8.675V11.1h-13.775V29z" fill="#122675"/><path stroke="#122675" stroke-width="2" d="M39 39h38v38H39z"/><path fill-rule="evenodd" clip-rule="evenodd" d="M76 38h154v40H76V38zm117.862 28.959h.987l-.964 5.455h-.987l.964-5.455zm.87-2.586c.376 0 .682.305.682.658 0 .4-.353.729-.753.729a.657.657 0 01-.658-.659c-.023-.4.306-.728.729-.728zm-28.52 7.288c-1.011 0-1.764-.564-1.764-1.669h4.091c.071-.282.118-.635.118-.94 0-1.34-.941-2.21-2.234-2.21a2.81 2.81 0 00-2.186 1.01c-.494.588-.776 1.411-.776 2.21 0 1.67 1.199 2.493 2.68 2.493.517 0 1.152-.118 1.622-.33l.189-1.034c-.424.235-1.082.47-1.74.47zm1.504-2.468h-3.15c.282-.917.964-1.458 1.81-1.458.894 0 1.34.564 1.34 1.34v.118zm2.751-2.234h1.011l-.117.658h.023c.565-.447 1.223-.8 1.975-.8.964 0 1.646.636 1.646 1.67 0 .188-.023.4-.094.776l-.564 3.15h-1.011l.541-3.08c.047-.305.07-.493.07-.658 0-.564-.259-.917-.87-.917-.635 0-1.317.4-1.904.847l-.659 3.809h-1.034l.987-5.455zm8.441 4.702c-1.011 0-1.763-.564-1.763-1.669h4.091a4.15 4.15 0 00.117-.94c0-1.34-.94-2.21-2.233-2.21-.753 0-1.575.282-2.187 1.01-.494.588-.776 1.411-.776 2.21 0 1.67 1.199 2.493 2.681 2.493.517 0 1.152-.118 1.622-.33l.188-1.034c-.423.235-1.081.47-1.74.47zm1.505-2.468h-3.151c.283-.917.964-1.458 1.811-1.458.893 0 1.34.564 1.34 1.34v.118zm2.751-2.234h1.011l-.165.94h.024c.47-.587 1.317-.987 2.022-.987.118 0 .235 0 .353.024l-.165.964c-.031 0-.075-.005-.125-.01a2.106 2.106 0 00-.204-.014c-.776 0-1.528.423-2.069 1.129l-.611 3.409h-.988l.917-5.455zm6.654-.118c-.894 0-1.717.306-2.281.894-.611.611-.941 1.505-.917 2.375 0 1.387.94 2.327 2.234 2.327.611 0 1.011-.211 1.363-.447l-.094.518c-.211 1.128-1.011 1.599-1.881 1.599-.658 0-1.34-.259-1.81-.612l-.188 1.035c.635.329 1.293.47 1.951.47 1.482 0 2.61-.705 2.939-2.563l.894-5.055c-.706-.329-1.482-.54-2.21-.54zm.54 4.21c-.399.281-.846.493-1.34.493-.846 0-1.434-.611-1.434-1.552 0-.588.212-1.2.611-1.622.329-.377.823-.635 1.482-.635.446 0 .917.117 1.222.235l-.541 3.08zm9.993 1.386h-.987l.094-.47h-.024c-.4.33-.893.611-1.552.611-1.199 0-2.116-.917-2.116-2.35 0-.824.306-1.764.964-2.446.635-.658 1.482-.94 2.281-.94.799 0 1.552.282 2.234.61l-.894 4.985zm-.211-4.42a2.842 2.842 0 00-1.223-.282c-.682 0-1.176.282-1.528.682a2.674 2.674 0 00-.635 1.716c0 .988.588 1.552 1.316 1.552.541 0 1.106-.306 1.576-.8l.494-2.868zm-92.121-9.687c-1.387 0-3.715-.564-5.572-1.81v3.879c1.645.846 3.785 1.293 5.525 1.293 3.762 0 6.348-2.045 6.348-5.455 0-3.103-2.116-4.326-4.749-5.196-.385-.125-.754-.231-1.099-.331h-.001c-1.535-.443-2.615-.754-2.615-2.02 0-1.152.94-1.646 2.234-1.646 1.363 0 3.503.54 5.36 1.693v-3.785c-1.528-.823-3.621-1.247-5.337-1.247-3.644 0-6.113 2.022-6.113 5.267 0 3.057 2.163 4.232 4.585 5.008.389.127.761.237 1.109.339 1.648.484 2.77.814 2.77 2.153 0 1.294-1.058 1.858-2.445 1.858zm10.322-14.625c1.152 0 2.116.94 2.116 2.093 0 1.152-.964 2.093-2.116 2.093-1.152 0-2.116-.941-2.116-2.093-.024-1.152.94-2.093 2.116-2.093zm19.773 9.24c.282.33.423.73.423 1.623v6.866h3.668V53.98c0-1.693-.329-2.727-1.081-3.503-.682-.729-1.74-1.176-3.057-1.176-1.481 0-2.892.564-4.161 1.693-.706-1.199-2.187-1.693-3.457-1.693-1.457 0-2.657.564-3.574 1.34l-.047-.023V49.56h-3.62v11.826h3.714v-7.994c.588-.493 1.458-.964 2.305-.964.47 0 .917.165 1.246.518.305.352.423.823.423 1.622v6.842h3.668v-7.453c0-.188 0-.377-.024-.541.612-.564 1.482-.988 2.328-.988.47 0 .917.165 1.246.518zm10.745 13.45h-3.668V49.23h3.598v.587l.047.024c.776-.54 1.763-.893 2.939-.893 3.033 0 5.619 2.421 5.619 6.09 0 3.808-2.727 6.3-6.207 6.3-.964 0-1.74-.188-2.281-.446l-.047.023v5.479zm1.881-8.018c1.905 0 2.963-1.364 2.963-3.127 0-1.787-1.058-3.221-2.869-3.221a3.27 3.27 0 00-1.975.658v5.267c.471.211 1.152.423 1.881.423zM163.437 43h-3.668v18.41h3.668V43zm6.066 13.19c.4 1.646 1.764 2.399 3.457 2.399 1.316 0 2.774-.447 4.02-1.294v3.057c-1.152.729-2.939 1.081-4.514 1.081-3.903 0-6.725-2.445-6.725-6.16 0-3.785 2.939-6.254 6.231-6.254 2.916 0 5.666 1.928 5.666 5.902 0 .4-.023.94-.07 1.246h-8.065v.023zm4.75-2.304c-.212-1.27-1.152-2.046-2.328-2.046-1.129 0-2.116.706-2.445 2.046h4.773zm10.11 4.703c-1.129 0-3.033-.4-4.679-1.364v3.197c1.434.706 3.268.988 4.679.988 3.056 0 5.314-1.41 5.337-4.02 0-2.07-1.387-2.916-3.644-3.48a22.083 22.083 0 00-1.248-.253c-1.084-.196-1.785-.323-1.785-.97 0-.564.587-.846 1.551-.846 1.059 0 2.892.376 4.468 1.27V49.96c-1.364-.659-3.127-.941-4.538-.941-2.963 0-5.173 1.41-5.196 3.927 0 1.951 1.34 2.892 3.574 3.456.476.119.92.2 1.313.271 1.082.197 1.79.326 1.79.998 0 .659-.611.918-1.622.918z" fill="#122675"/><path d="M63.375 50c-2.169 0-3.995 1.348-4.875 2.133-.88-.785-2.706-2.133-4.875-2.133C50.523 50 48 52.514 48 55.606c0 1.936 1.774 3.698 1.845 3.768L58.5 68l8.65-8.621c.076-.075 1.85-1.837 1.85-3.773C69 52.514 66.477 50 63.375 50z" fill="#122675"/></svg>
